client/src/assets/images/icon-laboratory-blue.svg

<svg fill="none" height="60" viewBox="0 0 44 60" width="44" xmlns="http://www.w3.org/2000/svg"><path d="m1 60h38c.5522 0 1-.4478 1-1v-13.6172c.9683-1.1304 4-5.2378 4-12.3828s-3.0317-11.2524-4-12.3823v-3.6177c0-.5522-.4478-1-1-1h-7.5859l6.2929-6.29297c.3907-.39014.3907-1.02344 0-1.41406l-.2929-.29297 2.2929-2.29297c.3907-.39062.3907-1.02344 0-1.41406l-4-4.000001c-.3901-.3906252-1.0234-.3906252-1.414 0l-2.293 2.292971-.293-.29297c-.3906-.39063-1.0234-.39063-1.414 0l-16 16.00003c-.3907.3906-.3907 1.0239 0 1.414l.2929.293-3.2929 3.293c-.3907.3906-.3907 1.0239 0 1.414l4 4c.3906.3907 1.0234.3907 1.414 0l3.293-3.2929.293.2929c.3906.3907 1.0239.3907 1.414 0l2.5401-2.54c2.165 1.4453 5.0796.9668 6.6684-1.0952 1.2866.6743 6.0845 3.6758 6.0845 10.9282 0 6.5757-5.2031 10.2959-6.2881 11h-4.7119v-7c0-.5522-.4478-1-1-1h-18c-.55225 0-1 .4478-1 1v4c0 .5522.44775 1 1 1h13v2h-3c-.5522 0-1 .4478-1 1v7h-11c-2.76025.0034-4.99658202 2.2402-5 5v2c0 .5522.447754 1 1 1zm34-57.58594 2.5859 2.58594-1.5859 1.58594-2.5859-2.58594zm-19 24.17184-2.5859-2.5859 2.5859-2.5859 2.5859 2.5859zm11-4.5859c-1.6567 0-3-1.3433-3-3s1.3433-3 3-3 3 1.3433 3 3c-.002 1.6562-1.3438 2.998-3 3zm2.7529-7.167c-1.9795-1.314-4.6108-1.0508-6.2905.6294-1.6802 1.6797-1.9434 4.311-.6294 6.2905l-1.833 1.833-4.5859-4.5859 14.5859-14.58594 4.5859 4.58594zm2.146 5.167c.1348-.6597.1348-1.3398 0-2h6.1011v2zm7.1011 13c.1396-4.186-1.5903-8.2173-4.7207-11h4.2681c2.3667 3.168 3.5844 7.0479 3.4526 11 .1318 3.9521-1.0859 7.832-3.4521 11h-4.5899c3.165-2.7856 4.9976-6.7842 5.042-11zm-31 7v-2h16v2zm16 2v7c0 .5522-.4478 1-1 1s-1-.4478-1-1v-7zm-6 4h2v3c0 1.6567 1.3433 3 3 3s3-1.3433 3-3v-3h12v6h-20zm-16 11c.00195-1.6562 1.34375-2.998 3-3h33v4h-36z" fill="#06b9ff"/></svg>

<svg width="44" height="60" viewBox="0 0 44 60" fill="none" xmlns="http://www.w3.org/2000/svg">
<path d="M1 60H39C39.5522 60 40 59.5522 40 59V45.3828C40.9683 44.2524 44 40.145 44 33C44 25.855 40.9683 21.7476 40 20.6177V17C40 16.4478 39.5522 16 39 16H31.4141L37.707 9.70703C38.0977 9.31689 38.0977 8.68359 37.707 8.29297L37.4141 8L39.707 5.70703C40.0977 5.31641 40.0977 4.68359 39.707 4.29297L35.707 0.292969C35.3169 -0.0976562 34.6836 -0.0976562 34.293 0.292969L32 2.58594L31.707 2.29297C31.3164 1.90234 30.6836 1.90234 30.293 2.29297L14.293 18.293C13.9023 18.6836 13.9023 19.3169 14.293 19.707L14.5859 20L11.293 23.293C10.9023 23.6836 10.9023 24.3169 11.293 24.707L15.293 28.707C15.6836 29.0977 16.3164 29.0977 16.707 28.707L20 25.4141L20.293 25.707C20.6836 26.0977 21.3169 26.0977 21.707 25.707L24.2471 23.167C26.4121 24.6123 29.3267 24.1338 30.9155 22.0718C32.2021 22.7461 37 25.7476 37 33C37 39.5757 31.7969 43.2959 30.7119 44H26V37C26 36.4478 25.5522 36 25 36H7C6.44775 36 6 36.4478 6 37V41C6 41.5522 6.44775 42 7 42H20V44H17C16.4478 44 16 44.4478 16 45V52H5C2.23975 52.0034 0.00341798 54.2402 0 57V59C0 59.5522 0.447754 60 1 60ZM35 2.41406L37.5859 5L36 6.58594L33.4141 4L35 2.41406ZM16 26.5859L13.4141 24L16 21.4141L18.5859 24L16 26.5859ZM27 22C25.3433 22 24 20.6567 24 19C24 17.3433 25.3433 16 27 16C28.6567 16 30 17.3433 30 19C29.998 20.6562 28.6562 21.998 27 22ZM29.7529 14.833C27.7734 13.519 25.1421 13.7822 23.4624 15.4624C21.7822 17.1421 21.519 19.7734 22.833 21.7529L21 23.5859L16.4141 19L31 4.41406L35.5859 9L29.7529 14.833ZM31.8989 20C32.0337 19.3403 32.0337 18.6602 31.8989 18H38V20H31.8989ZM39 33C39.1396 28.814 37.4097 24.7827 34.2793 22H38.5474C40.9141 25.168 42.1318 29.0479 42 33C42.1318 36.9521 40.9141 40.832 38.5479 44H33.958C37.123 41.2144 38.9556 37.2158 39 33ZM8 40V38H24V40H8ZM24 42V49C24 49.5522 23.5522 50 23 50C22.4478 50 22 49.5522 22 49V42H24ZM18 46H20V49C20 50.6567 21.3433 52 23 52C24.6567 52 26 50.6567 26 49V46H38V52H18V46ZM2 57C2.00195 55.3438 3.34375 54.002 5 54H38V58H2V57Z" fill="#06b9ff"/>
</svg>
